Systematic/src/svg/clock.svg

<svg xmlns="http://www.w3.org/2000/svg" xml:space="preserve" width="74.667" height="74.667"><defs><clipPath id="a" clipPathUnits="userSpaceOnUse"><path d="M0 256h256V0H0Z"/></clipPath></defs><g clip-path="url(#a)" transform="matrix(1.33333 0 0 -1.33333 -133.333 221.333)"><path d="M0 0c15.448 0 28-12.584 28-28.021S15.448-56 0-56s-28 12.542-28 27.979S-15.448 0 0 0" style="fill:#333;fill-opacity:1;fill-rule:nonzero;stroke:none" transform="translate(128 166)"/><path d="M0 0c-14.007 0-25.333-11.318-25.333-25.314S-14.007-50.587 0-50.587s25.333 11.276 25.333 25.273S14.007 0 0 0" style="fill:#e0e0e0;fill-opacity:1;fill-rule:nonzero;stroke:none" transform="translate(128 163.294)"/><path d="M0 0c-.7 0-1.241.541-1.241 1.24 0 .7.541 1.241 1.241 1.241S1.241 1.94 1.241 1.24C1.241.541.7 0 0 0m1.241 4.746v15.101c0 .683-.558 1.241-1.241 1.241a1.244 1.244 0 0 1-1.241-1.241V4.746a3.7 3.7 0 0 1-.774-.379l-8.281 8.275a1.247 1.247 0 0 1-1.756 0 1.244 1.244 0 0 1 0-1.755l8.509-8.502A3.722 3.722 0 0 1 0-2.481a3.72 3.72 0 0 1 1.241 7.227" style="fill:#262626;fill-opacity:1;fill-rule:nonzero;stroke:none" transform="translate(128 136.739)"/></g></svg>

<?xml version="1.0" encoding="UTF-8" standalone="no"?>
<svg
   xmlns:dc="http://purl.org/dc/elements/1.1/"
   xmlns:cc="http://creativecommons.org/ns#"
   xmlns:rdf="http://www.w3.org/1999/02/22-rdf-syntax-ns#"
   xmlns:svg="http://www.w3.org/2000/svg"
   xmlns="http://www.w3.org/2000/svg"
   viewBox="0 0 74.666663 74.666663"
   height="74.666664"
   width="74.666664"
   xml:space="preserve"
   id="svg2"
   version="1.1"><metadata
     id="metadata8"><rdf:RDF><cc:Work
         rdf:about=""><dc:format>image/svg+xml</dc:format><dc:type
           rdf:resource="http://purl.org/dc/dcmitype/StillImage" /></cc:Work></rdf:RDF></metadata><defs
     id="defs6"><clipPath
       id="clipPath18"
       clipPathUnits="userSpaceOnUse"><path
         id="path16"
         d="M 0,256 H 256 V 0 H 0 Z" /></clipPath></defs><g
     transform="matrix(1.3333333,0,0,-1.3333333,-133.33333,221.33333)"
     id="g10"><g
       id="g12"><g
         clip-path="url(#clipPath18)"
         id="g14"><g
           transform="translate(128,166)"
           id="g20"><path
             id="path22"
             style="fill:#333333;fill-opacity:1;fill-rule:nonzero;stroke:none"
             d="M 0,0 C 15.448,0 28,-12.584 28,-28.021 28,-43.458 15.448,-56 0,-56 -15.448,-56 -28,-43.458 -28,-28.021 -28,-12.584 -15.448,0 0,0" /></g><g
           transform="translate(128,163.2937)"
           id="g24"><path
             id="path26"
             style="fill:#e0e0e0;fill-opacity:1;fill-rule:nonzero;stroke:none"
             d="m 0,0 c -14.007,0 -25.333,-11.318 -25.333,-25.314 0,-13.997 11.326,-25.273 25.333,-25.273 14.007,0 25.333,11.276 25.333,25.273 C 25.333,-11.318 14.007,0 0,0" /></g><g
           transform="translate(128,136.7387)"
           id="g28"><path
             id="path30"
             style="fill:#262626;fill-opacity:1;fill-rule:nonzero;stroke:none"
             d="M 0,0 C -0.7,0 -1.241,0.541 -1.241,1.24 -1.241,1.94 -0.7,2.481 0,2.481 0.7,2.481 1.241,1.94 1.241,1.24 1.241,0.541 0.7,0 0,0 m 1.241,4.746 v 15.101 c 0,0.683 -0.558,1.241 -1.241,1.241 -0.683,0 -1.241,-0.558 -1.241,-1.241 V 4.746 C -1.515,4.649 -1.775,4.522 -2.015,4.367 l -8.281,8.275 c -0.483,0.482 -1.273,0.482 -1.756,0 -0.483,-0.483 -0.483,-1.272 0,-1.755 L -3.543,2.385 C -3.66,2.024 -3.724,1.64 -3.724,1.24 c 0,-2.055 1.667,-3.721 3.724,-3.721 2.057,0 3.724,1.666 3.724,3.721 0,1.62 -1.037,2.994 -2.483,3.506" /></g></g></g></g></svg>
